svg/kayaking.svg

<svg xmlns="http://www.w3.org/2000/svg" viewBox="0 0 24 24"><path d="M22 23v-2c-1.42.05-2.79-.1-4-1-1.77 1.25-4.23 1.25-6 0-1.77 1.25-4.23 1.25-6 0-1.21.9-2.58 1.05-4 1v2c1.38.05 2.79-.06 4-.75 1.84 1 4.16 1 6 0 1.84 1 4.16 1 6 0 1.21.69 2.62.8 4 .75m1.39-5.79c-2.26-.92-5.09-1.65-7.73-1.99l3.7-8.34 1.31-.47 1.33-3L18.8 2l-1.3 2.95.5 1.32-1.69 3.7-2.81 1.5L11 10.2a.5.5 0 0 0-.26-.14c-.92-.33-1.97.26-2.24 1.17l-1.37 4.18c-.54-.23-5.88 1.56-6.215 1.71L0 17.47c1.33.57 2.2.92 3.94 1.41.81-.25 1.5-.79 2.06-1.41 1.5 1.95 4.5 1.95 6 0 1.5 1.95 4.5 1.95 6 0 .56.62 1.25 1.16 2.06 1.41l2.89-.97 1.05-.44zm-9.33-2.13c-.99-.08-2-.08-3-.08l.71-2.17 1.73.94 1.5-.85zM14 7.5c0 1.11-.89 2-2 2s-2-.89-2-2 .9-2 2-2 2 .9 2 2"/></svg>

<svg xmlns="http://www.w3.org/2000/svg" id="mdi-kayaking" viewBox="0 0 24 24"><path d="M22 23V21C20.58 21.05 19.21 20.9 18 20C16.23 21.25 13.77 21.25 12 20C10.23 21.25 7.77 21.25 6 20C4.79 20.9 3.42 21.05 2 21V23C3.38 23.05 4.79 22.94 6 22.25C7.84 23.25 10.16 23.25 12 22.25C13.84 23.25 16.16 23.25 18 22.25C19.21 22.94 20.62 23.05 22 23M23.39 17.21C21.13 16.29 18.3 15.56 15.66 15.22L19.36 6.88L20.67 6.41L22 3.41L18.8 2L17.5 4.95L18 6.27L16.31 9.97L13.5 11.47L11 10.2C10.95 10.14 10.86 10.09 10.74 10.06C9.82 9.73 8.77 10.32 8.5 11.23L7.13 15.41C6.59 15.18 1.25 16.97 .915 17.12L0 17.47C1.33 18.04 2.2 18.39 3.94 18.88C4.75 18.63 5.44 18.09 6 17.47C7.5 19.42 10.5 19.42 12 17.47C13.5 19.42 16.5 19.42 18 17.47C18.56 18.09 19.25 18.63 20.06 18.88L22.95 17.91L24 17.47L23.39 17.21M14.06 15.08C13.07 15 12.06 15 11.06 15L11.77 12.83L13.5 13.77L15 12.92L14.06 15.08M14 7.5C14 8.61 13.11 9.5 12 9.5S10 8.61 10 7.5 10.9 5.5 12 5.5 14 6.4 14 7.5Z" /></svg>
